packages/sights/assets/overlays/zjAIjUgU.svg

<svg width="500" height="375" viewBox="0 0 500 375" fill="none" xmlns="http://www.w3.org/2000/svg">
<path d="M10.5195 108.98C10.5195 108.98 102.67 82.54 216.86 79.32C216.86 79.32 290.24 32.64 312.25 22.91L326.52 16" stroke="white" stroke-miterlimit="10"/>
<path d="M490.011 250.23L232.761 279.32L228.331 276.18L218.241 251.99L215.141 252.15" stroke="white" stroke-miterlimit="10"/>
<path d="M10 231.79C25.76 190.79 68.52 161.42 118.79 161.42C182.45 161.42 234.06 208.54 234.06 266.66C234.062 270.981 233.775 275.297 233.2 279.58" stroke="white" stroke-miterlimit="10"/>
<path d="M119.871 358.84C173.437 358.84 216.861 318.648 216.861 269.07C216.861 219.491 173.437 179.3 119.871 179.3C66.3048 179.3 22.8809 219.491 22.8809 269.07C22.8809 318.648 66.3048 358.84 119.871 358.84Z" stroke="white" stroke-miterlimit="10"/>
<path d="M187.52 166C187.52 166 231.09 181.59 241.64 239.84L490.02 214.61" stroke="white" stroke-miterlimit="10"/>
<path d="M354.14 66.3193C354.14 66.3193 329.98 66.1693 290.24 79.6193C290.24 79.6193 268.24 83.4393 257.83 82.6793L254.52 91.0993C254.52 91.0993 327.89 89.5693 343.95 81.0093C343.95 81.0093 352.51 78.7093 354.19 66.3293L356.48 53.7993C356.48 53.7993 350.16 46.3193 324.94 46.3193C324.94 46.3193 316.69 47.8493 313.48 51.8193C313.48 51.8193 290.7 62.0593 289.17 64.0493L293.6 78.2693" stroke="white" stroke-miterlimit="10"/>
<path d="M257.828 82.69C257.828 82.69 328.298 25.13 361.018 16" stroke="white" stroke-miterlimit="10"/>
<path d="M292.828 89.2897L490.008 84.2197" stroke="white" stroke-miterlimit="10"/>
<path d="M461.909 16C461.909 16 468.789 67.89 465.579 84.85L470.519 89.32L473.729 113.75C473.729 113.75 468.989 162.53 461.959 195.46C461.959 195.46 458.599 213.27 458.369 223.36L457.449 239.87L449.449 254.87" stroke="white" stroke-miterlimit="10"/>
<path d="M424.609 124.73V129.47L426.439 130.15L463.899 128.93L465.199 128.01L465.809 123.2L463.899 121.75C463.899 121.75 457.169 119.22 453.039 120.37L452.659 122.89L438.979 123.2L434.389 121.14C434.389 121.14 426.209 122.32 424.609 124.73Z" stroke="white" stroke-miterlimit="10"/>
</svg>

<svg width="500" height="375" fill="none" xmlns="http://www.w3.org/2000/svg"><path d="M10.52 108.98s92.15-26.44 206.34-29.66c0 0 73.38-46.68 95.39-56.41L326.52 16M490.011 250.23l-257.25 29.09-4.43-3.14-10.09-24.19-3.1.16" stroke="#fff" stroke-miterlimit="10"/><path d="M10 231.79c15.76-41 58.52-70.37 108.79-70.37 63.66 0 115.27 47.12 115.27 105.24a96.76 96.76 0 0 1-.86 12.92" stroke="#fff" stroke-miterlimit="10"/><path d="M119.871 358.84c53.566 0 96.99-40.192 96.99-89.77 0-49.579-43.424-89.77-96.99-89.77-53.566 0-96.99 40.191-96.99 89.77 0 49.578 43.424 89.77 96.99 89.77ZM187.52 166s43.57 15.59 54.12 73.84l248.38-25.23M354.14 66.32s-24.16-.15-63.9 13.3c0 0-22 3.82-32.41 3.06l-3.31 8.42s73.37-1.53 89.43-10.09c0 0 8.56-2.3 10.24-14.68l2.29-12.53s-6.32-7.48-31.54-7.48c0 0-8.25 1.53-11.46 5.5 0 0-22.78 10.24-24.31 12.23l4.43 14.22" stroke="#fff" stroke-miterlimit="10"/><path d="M257.828 82.69s70.47-57.56 103.19-66.69M292.828 89.29l197.18-5.07M461.909 16s6.88 51.89 3.67 68.85l4.94 4.47 3.21 24.43s-4.74 48.78-11.77 81.71c0 0-3.36 17.81-3.59 27.9l-.92 16.51-8 15" stroke="#fff" stroke-miterlimit="10"/><path d="M424.609 124.73v4.74l1.83.68 37.46-1.22 1.3-.92.61-4.81-1.91-1.45s-6.73-2.53-10.86-1.38l-.38 2.52-13.68.31-4.59-2.06s-8.18 1.18-9.78 3.59Z" stroke="#fff" stroke-miterlimit="10"/></svg>
